icons/badge/check/circle.svg

<svg width="32" height="32" viewBox="0 0 32 32" xmlns="http://www.w3.org/2000/svg"><path fill-rule="evenodd" clip-rule="evenodd" d="M4.00012 16C4.00012 9.37261 9.3727 4.00003 16.0001 4.00003C22.6275 4.00003 28.0001 9.37261 28.0001 16C28.0001 22.6274 22.6275 28 16.0001 28C9.3727 28 4.00012 22.6274 4.00012 16ZM16.0001 2.00003C8.26814 2.00003 2.00012 8.26804 2.00012 16C2.00012 23.732 8.26814 30 16.0001 30C23.7321 30 30.0001 23.732 30.0001 16C30.0001 8.26804 23.7321 2.00003 16.0001 2.00003ZM14.7071 20.7071L22.7071 12.7071L21.2929 11.2929L14 18.5858L10.2071 14.7929L8.79289 16.2071L13.2929 20.7071L14 21.4142L14.7071 20.7071Z"/></svg>

<svg viewBox="0 0 32 32" xmlns="http://www.w3.org/2000/svg"><path fill-rule="evenodd" d="M4 16C4 9.373 9.373 4 16 4c6.628 0 12 5.373 12 12s-5.372 12-12 12C9.373 28 4 22.627 4 16zM16 2C8.268 2 2 8.268 2 16s6.268 14 14 14 14-6.268 14-14S23.732 2 16 2zm-1.293 18.707l8-8-1.414-1.414L14 18.586l-3.793-3.793-1.414 1.414 4.5 4.5.707.707.707-.707z"/></svg>
